dist/flags/s/BQ-SA.svg

<svg width="16" height="12" viewBox="0 0 16 12" fill="none" xmlns="http://www.w3.org/2000/svg">
<mask id="mask0" mask-type="alpha" maskUnits="userSpaceOnUse" x="0" y="0" width="16" height="12">
<rect width="16" height="12" fill="white"/>
</mask>
<g mask="url(#mask0)">
<path fill-rule="evenodd" clip-rule="evenodd" d="M0 0H16V12H0V0Z" fill="white"/>
<path fill-rule="evenodd" clip-rule="evenodd" d="M0 5.832V0H8L0 5.832Z" fill="#F00000"/>
<path fill-rule="evenodd" clip-rule="evenodd" d="M16 5.832V0H8L16 5.832Z" fill="#F00000"/>
<path fill-rule="evenodd" clip-rule="evenodd" d="M0 5.832V12H8L0 5.832Z" fill="#00268D"/>
<path fill-rule="evenodd" clip-rule="evenodd" d="M16 5.83197V12.168L8 12L16 5.83197Z" fill="#00268D"/>
<path fill-rule="evenodd" clip-rule="evenodd" d="M7.85699 7.12813L6.09827 8.38164L6.74363 6.31101L5 5.0435H7.17229L7.85699 3L8.58274 5.0435H10.6959L8.96743 6.31101L9.62444 8.38164L7.85699 7.12813Z" fill="#FEDA00"/>
</g>
</svg>

<svg width="16" height="12" fill="none" xmlns="http://www.w3.org/2000/svg">
  <mask id="a" maskUnits="userSpaceOnUse" x="0" y="0" width="16" height="12">
    <path fill="#fff" d="M0 0h16v12H0z"/>
  </mask>
  <g mask="url(#a)" fill-rule="evenodd" clip-rule="evenodd">
    <path d="M0 0h16v12H0V0z" fill="#fff"/>
    <path d="M0 5.832V0h8L0 5.832zm16 0V0H8l8 5.832z" fill="#F00000"/>
    <path d="M0 5.832V12h8L0 5.832zm16 0v6.336L8 12l8-6.168z" fill="#00268D"/>
    <path d="M7.857 7.128L6.098 8.382l.646-2.071L5 5.043h2.172L7.857 3l.726 2.043h2.113L8.967 6.311l.657 2.07-1.767-1.253z" fill="#FEDA00"/>
  </g>
</svg>
